dist/img/ruki.svg

<svg width="124" height="146" viewBox="0 0 124 146" fill="none" xmlns="http://www.w3.org/2000/svg">
<path d="M57.3329 145.375C81.8172 145.375 101.666 126.487 101.666 103.188C101.666 79.8881 81.8172 61 57.3329 61C32.8485 61 13 79.8881 13 103.188C13 126.487 32.8485 145.375 57.3329 145.375Z" fill="#FFF4F4"/>
<path d="M104.119 86.4581L105.692 86.5223C105.902 83.923 106.722 81.4267 108.087 79.2265C109.453 77.0263 111.328 75.1813 113.567 73.8343L114.55 73.2296L113.576 72.5501C111.367 71.0096 109.532 69.0032 108.212 66.6863C106.893 64.3694 106.125 61.8041 105.968 59.189L104.4 59.116C104.192 61.7177 103.373 64.2167 102.007 66.4188C100.64 68.6209 98.763 70.4667 96.5209 71.8129L95.5375 72.4175L96.5114 73.097C98.7223 74.6359 100.559 76.6419 101.878 78.9592C103.198 81.2764 103.964 83.8426 104.119 86.4581ZM111.81 73.1367C108.588 75.319 106.199 78.4795 104.993 82.1557C103.851 78.3757 101.521 75.0099 98.3414 72.5474C101.563 70.3601 103.956 67.2002 105.173 63.5248C106.3 67.294 108.612 70.6538 111.774 73.1156L111.81 73.1367Z" fill="#333333"/>
<path d="M109.532 59.7125C110.046 60.0036 110.623 60.1624 111.208 60.1735C111.792 60.1847 112.365 60.0477 112.87 59.776C113.375 59.5043 113.796 59.1069 114.092 58.6223C114.387 58.1377 114.547 57.5822 114.557 57.0096C114.561 56.5731 114.477 56.1372 114.31 55.7268C114.143 55.3164 113.896 54.9397 113.583 54.6184C113.275 54.2939 112.905 54.0318 112.495 53.8477C112.086 53.6637 111.645 53.5616 111.2 53.5476C110.302 53.51 109.438 53.8231 108.797 54.4181C108.156 55.0131 107.791 55.8414 107.782 56.721C107.776 57.1561 107.858 57.591 108.024 58.0006C108.19 58.4101 108.435 58.7862 108.747 59.1069C108.979 59.3439 109.243 59.5478 109.532 59.7125ZM112.07 55.316C112.348 55.4789 112.58 55.7094 112.741 55.9843C112.903 56.2591 112.989 56.5685 112.991 56.8811C112.993 57.1937 112.91 57.4984 112.752 57.7643C112.594 58.0303 112.365 58.248 112.089 58.3955C111.813 58.543 111.5 58.615 111.181 58.6042C110.862 58.5935 110.548 58.5003 110.272 58.3341C109.997 58.168 109.768 57.9348 109.61 57.6582C109.451 57.3815 109.369 57.0713 109.371 56.7588C109.378 56.2882 109.574 55.8457 109.918 55.5279C110.261 55.21 110.724 55.0426 111.204 55.0622C111.502 55.0833 111.791 55.1779 112.046 55.3371L112.07 55.316Z" fill="#333333"/>
<path d="M114.697 67.6306C115.048 67.8327 115.44 67.9506 115.841 67.9742C116.18 68.0316 116.526 68.0176 116.854 67.9331C117.183 67.8487 117.486 67.6958 117.745 67.4847C118.004 67.2736 118.213 67.0091 118.356 66.7089C118.499 66.4087 118.574 66.0798 118.576 65.7441C118.578 65.4085 118.507 65.0738 118.367 64.7625C118.227 64.4512 118.022 64.1705 117.766 63.9392C117.509 63.7078 117.207 63.5311 116.88 63.421C116.553 63.3108 116.207 63.2697 115.867 63.3004C115.552 63.2832 115.238 63.3283 114.945 63.433C114.652 63.5377 114.386 63.6999 114.162 63.9098C113.707 64.3327 113.448 64.9196 113.438 65.5436C113.435 65.8537 113.494 66.1634 113.612 66.455C113.731 66.7467 113.906 67.0145 114.128 67.2433C114.299 67.3968 114.491 67.5272 114.697 67.6306ZM116.266 64.9137C116.375 64.9799 116.469 65.0688 116.54 65.1739C116.611 65.279 116.658 65.3977 116.677 65.521C116.696 65.6444 116.686 65.7694 116.649 65.8869C116.612 66.0043 116.548 66.1112 116.463 66.1997C116.345 66.3099 116.195 66.3823 116.033 66.4077C115.87 66.433 115.702 66.4102 115.549 66.3422C115.396 66.2741 115.266 66.1638 115.175 66.0253C115.083 65.8867 115.035 65.7261 115.036 65.5639C115.041 65.3465 115.132 65.1426 115.291 64.9958C115.368 64.9229 115.459 64.8665 115.56 64.83C115.661 64.7935 115.769 64.7776 115.877 64.7833C116.015 64.7929 116.149 64.8379 116.266 64.9137Z" fill="#333333"/>
<path d="M117.868 60.8207C118.216 61.0229 118.608 61.1363 119.007 61.1502C119.324 61.1645 119.638 61.1176 119.931 61.0121C120.225 60.9067 120.493 60.7447 120.719 60.5355C120.945 60.3263 121.125 60.0741 121.249 59.7931C121.373 59.5121 121.439 59.208 121.442 58.8981C121.448 58.5878 121.389 58.2775 121.271 57.9855C121.152 57.6935 120.976 57.4259 120.752 57.1985C120.419 56.8536 119.993 56.6098 119.527 56.4981C119.061 56.3863 118.576 56.4116 118.134 56.5707C117.692 56.7298 117.313 57.0156 117.044 57.3919C116.776 57.7682 116.63 58.218 116.625 58.6845C116.621 59.1107 116.734 59.5342 116.952 59.9102C117.171 60.2862 117.488 60.6007 117.868 60.8207ZM119.447 58.0861C119.523 58.1145 119.594 58.1556 119.657 58.2076C119.734 58.2853 119.795 58.377 119.836 58.4771C119.876 58.5772 119.896 58.6836 119.894 58.79C119.894 58.9525 119.843 59.1094 119.75 59.2408C119.657 59.3723 119.526 59.4723 119.372 59.5283C119.218 59.5842 119.05 59.5936 118.887 59.5551C118.725 59.5166 118.576 59.4321 118.46 59.3122C118.344 59.1923 118.265 59.0425 118.235 58.8818C118.204 58.721 118.222 58.5566 118.288 58.4094C118.353 58.2622 118.462 58.1388 118.601 58.0549C118.74 57.971 118.903 57.9303 119.069 57.9381C119.204 57.957 119.334 58.0078 119.447 58.0861Z" fill="#333333"/>
<path d="M82.313 125.023C86.2085 124.57 86.2085 121.943 86.2085 121.943V92.4999L91.6441 5.43898C91.6441 5.43898 91.6441 5.43898 91.6441 3.17413C91.6441 0.909275 90.0135 1.09046 90.0135 1.09046H53.2323C53.2323 0.999869 51.6016 0.818681 51.6016 3.08353C51.6016 5.34838 51.6016 5.34839 51.6016 5.34839L55.8253 72.999L56.4313 82.7042L57.0372 92.4093V121.852C57.0372 121.852 57.0372 124.57 60.9328 124.933C60.9328 125.023 67.6367 125.023 82.313 125.023Z" stroke="#333333" stroke-width="1.2" stroke-miterlimit="10" stroke-linecap="round" stroke-linejoin="round"/>
<path d="M86.2072 92.4077C86.2072 92.4077 76.6948 92.4077 56.9453 92.4077" stroke="#333333" stroke-width="1.2" stroke-miterlimit="10" stroke-linecap="round" stroke-linejoin="round"/>
<path d="M61.5586 115.873V119.768" stroke="#333333" stroke-width="1.2" stroke-miterlimit="10" stroke-linecap="round" stroke-linejoin="round"/>
<path d="M61.5586 97.6631V112.249" stroke="#333333" stroke-width="1.2" stroke-miterlimit="10" stroke-linecap="round" stroke-linejoin="round"/>
<path d="M59.6562 56.0796L61.1016 76.4993" stroke="#333333" stroke-width="1.2" stroke-miterlimit="10" stroke-linecap="round" stroke-linejoin="round"/>
<path d="M59.2969 49.6479L59.5687 52.547" stroke="#333333" stroke-width="1.2" stroke-miterlimit="10" stroke-linecap="round" stroke-linejoin="round"/>
<path d="M57.0312 10.6021L59.1149 46.2961" stroke="#333333" stroke-width="1.2" stroke-miterlimit="10" stroke-linecap="round" stroke-linejoin="round"/>
<path d="M91.6481 5.34766H51.6055" stroke="#333333" stroke-width="1.2" stroke-miterlimit="10" stroke-linecap="round" stroke-linejoin="round"/>
<path d="M55.3203 0.999023V5.34754" stroke="#333333" stroke-width="1.2" stroke-miterlimit="10" stroke-linecap="round" stroke-linejoin="round"/>
<path d="M58.9414 0.999023V5.34754" stroke="#333333" stroke-width="1.2" stroke-miterlimit="10" stroke-linecap="round" stroke-linejoin="round"/>
<path d="M62.5742 0.999023V5.34754" stroke="#333333" stroke-width="1.2" stroke-miterlimit="10" stroke-linecap="round" stroke-linejoin="round"/>
<path d="M66.1914 0.999023V5.34754" stroke="#333333" stroke-width="1.2" stroke-miterlimit="10" stroke-linecap="round" stroke-linejoin="round"/>
<path d="M69.8164 0.999023V5.34754" stroke="#333333" stroke-width="1.2" stroke-miterlimit="10" stroke-linecap="round" stroke-linejoin="round"/>
<path d="M73.4375 0.999023V5.34754" stroke="#333333" stroke-width="1.2" stroke-miterlimit="10" stroke-linecap="round" stroke-linejoin="round"/>
<path d="M77.0625 0.999023V5.34754" stroke="#333333" stroke-width="1.2" stroke-miterlimit="10" stroke-linecap="round" stroke-linejoin="round"/>
<path d="M80.6875 0.999023V5.34754" stroke="#333333" stroke-width="1.2" stroke-miterlimit="10" stroke-linecap="round" stroke-linejoin="round"/>
<path d="M84.3086 0.999023V5.34754" stroke="#333333" stroke-width="1.2" stroke-miterlimit="10" stroke-linecap="round" stroke-linejoin="round"/>
<path d="M87.9297 0.999023V5.34754" stroke="#333333" stroke-width="1.2" stroke-miterlimit="10" stroke-linecap="round" stroke-linejoin="round"/>
<path d="M36.7889 127.552C34.6942 127.549 32.6016 127.426 30.5221 127.185C25.5864 126.603 21.8323 125.518 18.7064 123.757C13.6287 120.882 10.1363 116.146 7.11512 111.445L6.74869 110.863C5.20817 108.455 3.62278 105.969 1.34939 104.236L0.601562 103.647L1.51391 103.309C8.18326 100.836 15.3107 99.7084 22.453 99.9961C28.6493 100.151 34.7247 101.679 40.2064 104.459C45.7404 107.27 50.1579 111.753 52.7774 117.217L51.7529 117.648C49.2246 112.414 44.9791 108.121 39.668 105.43C34.3348 102.739 28.4294 101.264 22.4082 101.117C15.7358 100.847 9.07329 101.841 2.80017 104.042C4.83426 105.825 6.29999 108.118 7.72086 110.338L8.08729 110.921C11.0337 115.506 14.4289 120.12 19.3047 122.866C22.296 124.555 25.908 125.597 30.6866 126.157C38.9576 127.121 46.6377 126.157 52.8895 123.362L53.3607 124.346C48.1442 126.558 42.4894 127.651 36.7889 127.552Z" fill="#333333"/>
<path d="M51.745 122.564C50.384 120.652 48.4022 119.265 45.8372 117.785C34.4605 111.206 21.618 107.323 8.37109 106.458L8.44588 105.387C21.872 106.269 34.8866 110.211 46.413 116.886C48.7462 118.237 51.1094 119.761 52.6723 121.982L51.745 122.564Z" fill="#333333"/>
<path d="M50.4647 100.906C50.1773 90.8337 46.4334 81.1357 39.8156 73.3211C33.3513 65.8121 24.477 60.5769 14.5839 58.4365C16.0796 62.7488 15.7281 67.4636 15.414 71.9915C15.2944 73.7308 15.1673 75.5276 15.1448 77.2597C15.0776 84.6569 16.9362 91.9529 20.5516 98.4835L19.5645 98.9866C15.8792 92.2946 13.9924 84.8236 14.0754 77.2525C14.0754 75.4845 14.225 73.6589 14.3447 71.9196C14.6812 67.1833 15.0252 62.2888 13.2528 57.9118L12.8789 56.999L13.881 57.1859C24.4139 59.2237 33.8978 64.6793 40.7429 72.6384C47.5176 80.6383 51.3509 90.5661 51.6462 100.877L50.4647 100.906Z" fill="#333333"/>
<path d="M37.3735 101.498C35.9864 95.3255 34.142 89.2561 31.8546 83.3361C29.5697 77.4407 26.2847 71.9496 22.1328 67.0859L22.9853 66.3672C27.2236 71.312 30.5795 76.8979 32.9165 82.8977C35.2315 88.8806 37.0983 95.0149 38.5027 101.254L37.3735 101.498Z" fill="#333333"/>
<path d="M31.7613 81.4743L20.2148 76.2133L20.7009 75.243L30.8863 79.8788L32.3596 70.7007L33.4663 70.866L31.7613 81.4743Z" fill="#333333"/>
<path d="M36.6526 95.9279L24.5977 90.0416L25.1062 89.0786L36.0244 94.4114L39.7935 84.2129L40.8479 84.5722L36.6526 95.9279Z" fill="#333333"/>
<path d="M32.3776 118.058L31.8242 117.116L38.5172 113.537L35.2642 107.327L36.2663 106.838L39.998 113.975L32.3776 118.058Z" fill="#333333"/>
<path d="M19.6498 113.493L19.1562 112.523L26.4849 109.116L21.5493 103.805L22.3869 103.086L28.3096 109.469L19.6498 113.493Z" fill="#333333"/>
</svg>

<svg xmlns="http://www.w3.org/2000/svg" fill="none" viewBox="0 0 124 146"><path fill="#FFF4F4" d="M57.333 145.375c24.484 0 44.333-18.888 44.333-42.187 0-23.3-19.849-42.188-44.333-42.188C32.849 61 13 79.888 13 103.188c0 23.299 19.849 42.187 44.333 42.187z"/><path fill="#333" d="M104.119 86.458l1.573.064c.21-2.599 1.03-5.095 2.395-7.296a16.372 16.372 0 0 1 5.48-5.392l.983-.604-.974-.68a18.062 18.062 0 0 1-5.364-5.864 17.255 17.255 0 0 1-2.244-7.497l-1.568-.073a16.301 16.301 0 0 1-2.393 7.303 16.352 16.352 0 0 1-5.486 5.394l-.984.605.974.679a18.013 18.013 0 0 1 5.367 5.862 17.217 17.217 0 0 1 2.241 7.5zm7.691-13.321a17.45 17.45 0 0 0-6.817 9.019c-1.142-3.78-3.472-7.146-6.652-9.609a17.57 17.57 0 0 0 6.832-9.022c1.127 3.769 3.439 7.129 6.601 9.59l.036.022zM109.532 59.712c.514.292 1.091.45 1.676.461a3.371 3.371 0 0 0 1.662-.397c.505-.272.926-.67 1.222-1.154.295-.484.455-1.04.465-1.612a3.323 3.323 0 0 0-.247-1.283 3.458 3.458 0 0 0-.727-1.109 3.447 3.447 0 0 0-2.383-1.07 3.319 3.319 0 0 0-2.403.87 3.176 3.176 0 0 0-1.015 2.303c-.006.435.076.87.242 1.28.166.41.411.785.723 1.106.232.237.496.44.785.605zm2.538-4.396c.278.163.51.393.671.668.162.275.248.584.25.897a1.706 1.706 0 0 1-.902 1.514c-.276.148-.589.22-.908.21a1.888 1.888 0 0 1-1.571-.947 1.783 1.783 0 0 1-.239-.9c.007-.47.203-.912.547-1.23a1.781 1.781 0 0 1 1.286-.466c.298.021.587.116.842.275l.024-.021zM114.697 67.63a2.6 2.6 0 0 0 1.144.344c.339.058.685.044 1.013-.04a2.32 2.32 0 0 0 .891-.45 2.25 2.25 0 0 0 .831-1.74 2.36 2.36 0 0 0-.209-.981 2.485 2.485 0 0 0-.601-.824 2.534 2.534 0 0 0-.886-.518 2.479 2.479 0 0 0-1.013-.12 2.36 2.36 0 0 0-.922.132 2.271 2.271 0 0 0-1.507 2.11c-.003.31.056.62.174.912.119.292.294.56.516.788.171.154.363.284.569.388zm1.569-2.716a.885.885 0 0 1 .274.26.853.853 0 0 1 .137.347.808.808 0 0 1-.214.679.814.814 0 0 1-.43.208.865.865 0 0 1-.858-.383.825.825 0 0 1-.139-.461.795.795 0 0 1 .524-.734.808.808 0 0 1 .317-.047c.138.01.272.055.389.13zM117.868 60.82c.348.203.74.316 1.139.33.317.014.631-.032.924-.138.294-.105.562-.267.788-.477a2.247 2.247 0 0 0 .723-1.637c.006-.31-.053-.62-.171-.913a2.427 2.427 0 0 0-.519-.786 2.523 2.523 0 0 0-1.225-.7 2.437 2.437 0 0 0-1.393.072c-.442.159-.821.445-1.09.82a2.266 2.266 0 0 0-.419 1.294c-.004.426.109.85.327 1.225.219.376.536.69.916.91zm1.579-2.734c.076.029.147.07.21.122a.803.803 0 0 1 .237.582.793.793 0 0 1-.522.738.848.848 0 0 1-.485.027.878.878 0 0 1-.427-.243.844.844 0 0 1-.225-.43.788.788 0 0 1 .366-.827.83.83 0 0 1 .468-.117.88.88 0 0 1 .378.148z"/><path stroke="#333" stroke-linecap="round" stroke-linejoin="round" stroke-miterlimit="10" stroke-width="1.2" d="M82.313 125.023c3.895-.453 3.895-3.08 3.895-3.08V92.5l5.436-87.061V3.174c0-2.265-1.63-2.084-1.63-2.084H53.231c0-.09-1.63-.271-1.63 1.994v2.264L55.825 73l.606 9.705.606 9.705v29.443s0 2.718 3.896 3.081c0 .09 6.704.09 21.38.09zM86.207 92.408H56.945M61.559 115.873v3.895M61.559 97.663v14.586M59.656 56.08l1.446 20.42M59.297 49.648l.272 2.899M57.031 10.602l2.084 35.694M91.648 5.348H51.606M55.32.999v4.349M58.941.999v4.349M62.574.999v4.349M66.191.999v4.349M69.816.999v4.349M73.438.999v4.349M77.063.999v4.349M80.688.999v4.349M84.309.999v4.349M87.93.999v4.349"/><path fill="#333" d="M36.789 127.552a55.126 55.126 0 0 1-6.267-.367c-4.936-.582-8.69-1.667-11.816-3.428-5.077-2.875-8.57-7.611-11.59-12.312l-.367-.582c-1.54-2.408-3.126-4.894-5.4-6.627l-.747-.589.912-.338a54.014 54.014 0 0 1 20.939-3.313 41.574 41.574 0 0 1 17.753 4.463c5.534 2.811 9.952 7.294 12.571 12.758l-1.024.431c-2.528-5.234-6.774-9.527-12.085-12.218a40.534 40.534 0 0 0-17.26-4.313A52.813 52.813 0 0 0 2.8 104.042c2.034 1.783 3.5 4.076 4.92 6.296l.367.583c2.947 4.585 6.342 9.199 11.218 11.945 2.991 1.689 6.603 2.731 11.382 3.291 8.27.964 15.95 0 22.202-2.795l.472.984a40.668 40.668 0 0 1-16.572 3.206z"/><path fill="#333" d="M51.745 122.564c-1.361-1.912-3.343-3.299-5.908-4.779-11.377-6.579-24.219-10.462-37.466-11.327l.075-1.071c13.426.882 26.44 4.824 37.967 11.499 2.333 1.351 4.696 2.875 6.26 5.096l-.928.582zM50.465 100.906c-.288-10.072-4.032-19.77-10.65-27.585-6.464-7.509-15.338-12.744-25.231-14.884 1.496 4.312 1.144 9.027.83 13.555-.12 1.739-.247 3.536-.27 5.268-.066 7.397 1.792 14.693 5.408 21.224l-.988.503c-3.685-6.692-5.572-14.163-5.489-21.734 0-1.769.15-3.594.27-5.333.336-4.737.68-9.631-1.092-14.008l-.374-.913 1.002.187c10.533 2.038 20.017 7.493 26.862 15.452 6.775 8 10.608 17.928 10.903 28.239l-1.181.029z"/><path fill="#333" d="M37.373 101.498a128.654 128.654 0 0 0-5.518-18.162 56.467 56.467 0 0 0-9.722-16.25l.852-.719a57.45 57.45 0 0 1 9.931 16.53 129.937 129.937 0 0 1 5.587 18.357l-1.13.244z"/><path fill="#333" d="M31.761 81.474l-11.546-5.26.486-.971 10.185 4.636L32.36 70.7l1.106.165-1.705 10.608zM36.653 95.928l-12.055-5.886.508-.963 10.918 5.332 3.77-10.198 1.054.36-4.195 11.355zM32.378 118.058l-.554-.942 6.693-3.579-3.253-6.21 1.002-.489 3.732 7.137-7.62 4.083zM19.65 113.493l-.494-.97 7.329-3.407-4.936-5.311.838-.719 5.923 6.383-8.66 4.024z"/></svg>
